X: 22765
T: Lang Shift
R: jig
M: 6/8
K: Dmajor
DED F2A|dA eA fA|gag fed|(3eee d BAF|
DED F2A|cde def|gag fed|edB d3:|
aaa fAA|aAA fAA|gag fed|(3efe d Bde|
aaa fAA|aAA fAA|gag fed|edB d3|
aaa fAA|aAA fAA|gag fed|(3efe d BAF|
DED F2A|dA eA fA|gag fed|edB d3||

